!!!COM: des Prez, Josquin
!!!CDT: ~1450-1521/08/27
!!!OPR: Missa L'ami Baudichon
!!!ONM: 1
!!!OTL: Kyrie
!!!AGN: Mass; Kyrie
!!!SCT: NJE 5.1
!!!SCA: New Josquin Edition 5.1
!!!voices: 4
!!!voices-OPR: 4
**kern	**text	**kern	**text	**kern	**text	**kern	**text
*staff4	*	*staff3	*	*staff2	*	*staff1	*
*Ivox	*	*Ivox	*	*Ivox	*	*Ivox	*
*I"Bassus	*	*I"Tenor	*	*I"Altus	*	*I"Superius	*
*I'B	*	*I'T	*	*I'A	*	*I'S	*
*>[A,B,C]	*	*>[A,B,C]	*	*>[A,B,C]	*	*>[A,B,C]	*
*>Kyrie1[A]	*	*>Kyrie1[A]	*	*>Kyrie1[A]	*	*>Kyrie1[A]	*
*>Christe[B]	*	*>Christe[B]	*	*>Christe[B]	*	*>Christe[B]	*
*>Kyrie2[C]	*	*>Kyrie2[C]	*	*>Kyrie2[C]	*	*>Kyrie2[C]	*
*clefF4	*	*clefGv2	*	*clefGv2	*	*clefG2	*
*>A	*	*>A	*	*>A	*	*>A	*
*k[]	*	*k[]	*	*k[]	*	*k[]	*
*M3/1	*	*M3/1	*	*M3/1	*	*M3/1	*
*met(O)	*	*met(O)	*	*met(O)	*	*met(O)	*
=1-	=1-	=1-	=1-	=1-	=1-	=1-	=1-
!!section: Kyrie I
!!!OMD: Kyrie I
!	!	!LO:TX:Z=6:t=T text based on Verona 761	!	!	!	!	!
0.r	.	0.r	.	0c	Ky-	0cc	Ky-
.	.	.	.	2e\	-ri-	1cc	-ri-
.	.	.	.	2f\	.	.	.
=2	=2	=2	=2	=2	=2	=2	=2
0.r	.	0.r	.	1g	.	1b	.
.	.	.	.	1.f	-e	1.a	-e
.	.	.	.	2e\	.	2g/	.
=3	=3	=3	=3	=3	=3	=3	=3
0.r	.	0.r	.	1e	.	1g	e-
.	.	.	.	2d\	e-	1.f	-lei-
.	.	.	.	2.d\	-lei-	.	.
.	.	.	.	4c\	.	.	.
.	.	.	.	2A/	.	2e/	.
=4	=4	=4	=4	=4	=4	=4	=4
0.r	.	0.r	.	2G/	.	1e	.
.	.	.	.	2c\	.	.	.
.	.	.	.	2d\	.	1.d	.
.	.	.	.	1B	.	.	-
.	.	.	.	2A/	.	2c/	.
=5	=5	=5	=5	=5	=5	=5	=5
0.C	Ky-	0e	L'a-	0c	-son,	1c	son,
.	.	.	.	.	.	1r	.
.	.	1e	-mi	[1g	ky-	1cc	ky-
=6	=6	=6	=6	=6	=6	=6	=6
1.G	.	0d	Bau-	1g]	.	1.b	.
.	.	.	.	0G	-ri-	.	.
2A\	.	.	.	.	.	2cc\	.
1B	-ri-	1d	-di-	.	.	1dd	-ri-
=7	=7	=7	=7	=7	=7	=7	=7
0c	-e	0c	-chon,	0e	-e	1.g	-e
.	.	.	.	.	.	4a/	.
.	.	.	.	.	.	4b\	.
[1A	e-	1c	ma-	1e	e-	1cc	.
=8	=8	=8	=8	=8	=8	=8	=8
1A]	.	0c	-da-	1e	-lei-	2a/	e-
.	.	.	.	.	.	2.cc\	-lei-
0F	-lei-	.	.	0f	.	.	.
.	.	.	.	.	.	4b\	.
.	.	.	.	.	.	1a	.
.	.	1c	-me,	.	.	.	.
.	.	.	.	.	.	4g/	.
.	.	.	.	.	.	4f/	.
=9	=9	=9	=9	=9	=9	=9	=9
0.C	-son,	0e	Ky-	1g	-son,	2e/	.
.	.	.	.	.	.	2.g/	.
.	.	.	.	1c	e-	.	.
.	.	.	.	.	.	4c/	.
.	.	.	.	.	.	1c	-son,
.	.	1e	-ri-	[1g	.	.	.
.	.	.	.	.	.	2cc\	e-
=10	=10	=10	=10	=10	=10	=10	=10
2G\	e-	0d	-e e-	2g\]	.	2dd\	.
2F\	.	.	.	2.a\	-lei-	2.ff\	-lei-
1D	-lei-	.	.	.	.	.	.
.	.	.	.	4g\	.	4ee\	.
.	.	.	.	4f\	.	4dd\	.
.	.	.	.	4e\	.	4cc\	.
1G	.	1d	-lei-	1d	-son,	2.b\	.
.	.	.	.	.	.	4a/	.
=11	=11	=11	=11	=11	=11	=11	=11
[0.Cl	-son.	[0.cl	-son.	2r	.	[0.ccl	-son.
.	.	.	.	1e	e-	.	.
.	.	.	.	2f\	.	.	.
.	.	.	.	1g	-lei-	.	.
=12	=12	=12	=12	=12	=12	=12	=12
0.C]	.	0.c]	.	0.cl	-son.	0.cc]	.
!!LO:LB:i:g=z
=13||	=13||	=13||	=13||	=13||	=13||	=13||	=13||
*>B	*	*>B	*	*>B	*	*>B	*
!!section: Christe
!!!OMD: Christe
*M2/1	*	*M2/1	*	*M2/1	*	*M2/1	*
*met(C|)	*	*met(C|)	*	*met(C|)	*	*met(C|)	*
0r	.	0r	.	[0c	Chri-	[0cc	Chri-
=14	=14	=14	=14	=14	=14	=14	=14
0r	.	0r	.	0c]	.	1.cc]	.
.	.	.	.	.	.	2b\	.
=15	=15	=15	=15	=15	=15	=15	=15
0r	.	0r	.	0f	.	0a	.
=16	=16	=16	=16	=16	=16	=16	=16
0r	.	0r	.	1.e	-ste	1.g	-ste
.	.	.	.	2d\	.	2f/	.
=17	=17	=17	=17	=17	=17	=17	=17
0r	.	0r	.	1e	.	1g	.
.	.	.	.	1f	.	[1a	.
=18	=18	=18	=18	=18	=18	=18	=18
0r	.	0r	.	0d	.	2a/]	.
.	.	.	.	.	.	2g/	.
.	.	.	.	.	.	1f	.
=19	=19	=19	=19	=19	=19	=19	=19
0r	.	0g	Plu-	0c	.	0e	.
=20	=20	=20	=20	=20	=20	=20	=20
0r	.	1g	-mez	1G	e-	0r	.
.	.	[1f	vos-	1A	.	.	.
=21	=21	=21	=21	=21	=21	=21	=21
0r	.	1f]	.	0B	-lei-	0d	e-
.	.	1f	-tre	.	.	.	.
=22	=22	=22	=22	=22	=22	=22	=22
0r	.	0e	con,	[0c	-son.	1c	.
.	.	.	.	.	.	[1g	-lei-
=23	=23	=23	=23	=23	=23	=23	=23
[0C	Chri-	1e	ma-	0c_	.	2g/]	.
.	.	.	.	.	.	2f/	.
.	.	[1e	-da-	.	.	1g	.
=24	=24	=24	=24	=24	=24	=24	=24
0C]	.	1e]	.	0c]	.	1a	.
.	.	1e	-me,	.	.	1cc	.
=25	=25	=25	=25	=25	=25	=25	=25
1.E	.	0g	Chri-	0G	.	1b	.
.	.	.	.	.	.	1g	.
2F\	.	.	.	.	.	.	.
=26	=26	=26	=26	=26	=26	=26	=26
1G	-ste	1g	-ste	0r	.	1b	.
1A	e-	[1f	e-	.	.	1cc	.
=27	=27	=27	=27	=27	=27	=27	=27
0B	-lei-	1f]	.	0r	.	0dd	.
.	.	1f	-lei-	.	.	.	.
=28	=28	=28	=28	=28	=28	=28	=28
[0c	-son.	0e	-son.	1r	.	0g	-son,
.	.	.	.	[1g	Chri-	.	.
=29	=29	=29	=29	=29	=29	=29	=29
0c]	.	0r	.	1g]	.	0r	.
.	.	.	.	2e\	.	.	.
.	.	.	.	2f\	.	.	.
=30	=30	=30	=30	=30	=30	=30	=30
0r	.	0r	.	1g	-ste	0e	Chri-
.	.	.	.	1c	.	.	.
=31	=31	=31	=31	=31	=31	=31	=31
0r	.	0r	.	1g	e-	1e	-ste
.	.	.	.	2f\	.	[1d	e-
.	.	.	.	[2f\	-lei-	.	.
=32	=32	=32	=32	=32	=32	=32	=32
0r	.	0r	.	4f\]	.	1d]	.
.	.	.	.	4e\	.	.	.
.	.	.	.	4d\	.	.	.
.	.	.	.	4c\	.	.	.
.	.	.	.	2.B\	.	1d	-lei-
.	.	.	.	4A/	.	.	.
=33	=33	=33	=33	=33	=33	=33	=33
0C	e-	0e	Il	1c	-son,	1c	-son,
.	.	.	.	2.e\	e-	2g/	e-
.	.	.	.	.	.	2a/	.
.	.	.	.	4f\	.	.	.
=34	=34	=34	=34	=34	=34	=34	=34
1E	-lei-	1e	en	1g	.	2g/	.
.	.	.	.	.	.	1cc	-lei-
1F	.	[1d	est	1f	-lei-	.	.
.	.	.	.	.	.	4b\	.
.	.	.	.	.	.	4a/	.
=35	=35	=35	=35	=35	=35	=35	=35
0G	.	1d]	.	1d	.	2g/	.
.	.	.	.	.	.	2.b\	.
.	.	1d	say-	[1g	-son,	.	.
.	.	.	.	.	.	4a/	.
.	.	.	.	.	.	4g/	.
.	.	.	.	.	.	4f/	.
=36	=36	=36	=36	=36	=36	=36	=36
[0C	-son,	0c	-son,	1g]	.	1e	-son,
.	.	.	.	2e\	e-	1r	.
.	.	.	.	2c\	.	.	.
=37	=37	=37	=37	=37	=37	=37	=37
0C_	.	1c	ma-	2.e\	-lei-	1g	e-
.	.	.	.	4f\	.	.	.
.	.	[1c	-da-	2g\	.	1e	.
.	.	.	.	[2a\	.	.	.
=38	=38	=38	=38	=38	=38	=38	=38
0C]	.	1c]	.	2a\]	.	2f/	.
.	.	.	.	4g\	.	2.g/	-lei-
.	.	.	.	4f\	.	.	.
.	.	1c	-me,	1e	-son,	.	.
.	.	.	.	.	.	4f/	.
.	.	.	.	.	.	4e/	.
.	.	.	.	.	.	4d/	.
=39	=39	=39	=39	=39	=39	=39	=39
1c	e-	0e	Chri-	2r	.	1c	-son,
.	.	.	.	1c	e-	.	.
1A	.	.	.	.	.	2r	.
.	.	.	.	[2A/	.	[2cc\	e-
=40	=40	=40	=40	=40	=40	=40	=40
1c	.	1e	-ste	2A/]	.	2cc\]	.
.	.	.	.	2c\	.	2a/	.
2B\	-lei-	[1d	e-	2G/	-lei-	2b\	.
[2G\	.	.	.	2B\	.	[2dd\	-lei-
=41	=41	=41	=41	=41	=41	=41	=41
2G\]	.	1d]	.	1A	.	4dd\]	.
.	.	.	.	.	.	4cc\	.
2F\#i	.	.	.	.	.	2a/	.
1G	-son,	1d	-lei-	1G	-son,	4b\	.
.	.	.	.	.	.	4a/	.
.	.	.	.	.	.	4g/	.
.	.	.	.	.	.	4f/	.
=42	=42	=42	=42	=42	=42	=42	=42
1r	.	[0cl	-son.	1g	e-	2.e/	.
.	.	.	.	.	.	4f/	.
[1C	e-	.	.	2e\	.	2g/	.
.	.	.	.	2f\	.	[2a/	.
=43	=43	=43	=43	=43	=43	=43	=43
1C]	.	0c_	.	1g	-lei-	4a/]	.
.	.	.	.	.	.	4b\	.
.	.	.	.	.	.	1cc	.
1F	.	.	.	1c	.	.	.
.	.	.	.	.	.	4b\	.
.	.	.	.	.	.	4a/	.
=44	=44	=44	=44	=44	=44	=44	=44
2E\	-lei-	0c_	.	1e	.	2g/	.
2C/	.	.	.	.	.	1a	.
2.F\	.	.	.	1f	.	.	.
.	.	.	.	.	.	4g/	.
4E\	.	.	.	.	.	4f/	.
=45	=45	=45	=45	=45	=45	=45	=45
0Cl	-son.	0c]	.	0gl	-son.	0el	-son.
!!LO:LB:i:g=z
=46||	=46||	=46||	=46||	=46||	=46||	=46||	=46||
*>C	*	*>C	*	*>C	*	*>C	*
!!section: Kyrie II
!!!OMD: Kyrie II
*M3/1	*	*M3/1	*	*M3/1	*	*M3/1	*
*met(O|)	*	*met(O|)	*	*met(O|)	*	*met(O|)	*
0.r	.	0.r	.	0.e	Ky-	0g	Ky-
.	.	.	.	.	.	1cc	-ri-
=47	=47	=47	=47	=47	=47	=47	=47
0.r	.	0.r	.	0.d	-ri-	2b\	-e
.	.	.	.	.	.	1a	.
.	.	.	.	.	.	4g/	.
.	.	.	.	.	.	4a/	.
.	.	.	.	.	.	4b\	.
.	.	.	.	.	.	4a/	.
.	.	.	.	.	.	4g/	.
.	.	.	.	.	.	4f/	.
=48	=48	=48	=48	=48	=48	=48	=48
0C	Ky-	0e	L'a-	0.c	-e	1e	.
.	.	.	.	.	.	1c	.
1C	-ri-	1e	-mi	.	.	1g	e-
=49	=49	=49	=49	=49	=49	=49	=49
2D\	e-	0d	Bau-	0A	.	2f/	.
2.F\	-lei-	.	.	.	.	2.a/	-lei-
4E\	.	.	.	.	.	4g/	.
4D\	.	.	.	.	.	1f	.
4C/	.	.	.	.	.	.	.
2.BB-i/	.	1d	-di-	1B-	e-	.	.
.	.	.	.	.	.	4e/	.
4AA/	.	.	.	.	.	4d/	.
=50	=50	=50	=50	=50	=50	=50	=50
[0.C	-son,	0c	-chon,	1G	.	0e	-son,
.	.	.	.	1g	-lei-	.	.
.	.	1c	ma-	2.e\	.	1r	.
.	.	.	.	4f\	.	.	.
=51	=51	=51	=51	=51	=51	=51	=51
0.C]	.	0e	-da-	0g	-son,	0c	e-
.	.	1e	-me	1c	e-	1g	.
=52	=52	=52	=52	=52	=52	=52	=52
1r	.	0d	e-	0f	-lei-	1.a	-lei-
1r	.	.	.	.	.	.	.
.	.	.	.	.	.	1.b	.
1G	ky-	1d	-lei-	1g	.	.	.
=53	=53	=53	=53	=53	=53	=53	=53
2C/	-ri-	0c	-son,	2e\	.	2.cc\	.
1F	-e	.	.	1f	.	.	.
.	.	.	.	.	.	4b\	.
.	.	.	.	.	.	2a/	.
2G\	.	.	.	4e\	.	2g/	.
.	.	.	.	4d\	.	.	.
1A	.	1r	.	1c	.	2.cc\	.
.	.	.	.	.	.	4dd\	.
=54	=54	=54	=54	=54	=54	=54	=54
2G\	e-	0g	Ky-	1r	.	1b	-son,
2.G\	-lei-	.	.	.	.	.	.
.	.	.	.	0d	-son,	2r	.
4F\	.	.	.	.	.	.	.
2E\	.	.	.	.	.	2g/	e-
1D	.	1f	-ri-	.	.	2a/	-lei-
.	.	.	.	.	.	2f/	.
=55	=55	=55	=55	=55	=55	=55	=55
1C	-son,	1e	-e	0G	.	1.g	.
2r	.	1g	.	.	.	.	.
2C/	e-	.	.	.	.	4f/	.
.	.	.	.	.	.	4e/	.
2D\	-lei-	1f	.	1r	.	1d	.
2BB/	.	.	.	.	.	.	.
=56	=56	=56	=56	=56	=56	=56	=56
0C	-son,	0e	.	1r	.	2c/	-son,
.	.	.	.	.	.	2.g/	e-
.	.	.	.	2r	.	.	.
.	.	.	.	.	.	4f/	.
.	.	.	.	2c\	e-	2e/	.
1r	.	1r	.	2d\	-lei-	1d	-lei-
.	.	.	.	2B\	.	.	.
=57	=57	=57	=57	=57	=57	=57	=57
1r	.	0e	e-	2c\	-son,	0c	-son,
.	.	.	.	1g	e-	.	.
2r	.	.	.	.	.	.	.
2C/	e-	.	.	2e\	.	.	.
2D\	-lei-	1d	.	2.f\	-lei-	1r	.
2BB/	.	.	.	.	.	.	.
.	.	.	.	4g\	.	.	.
=58	=58	=58	=58	=58	=58	=58	=58
0C	-son,	1c	-lei-	1e	-son,	1r	.
.	.	1e	.	1c	.	2r	.
.	.	.	.	.	.	2cc\	e-
1G	e-	1d	.	2r	.	2dd\	-lei-
.	.	.	.	2g\	e-	2b\	.
=59	=59	=59	=59	=59	=59	=59	=59
0.A	-lei-	0.c	.	2e\	.	2.cc\	.
.	.	.	.	2.a\	-lei-	.	.
.	.	.	.	.	.	4dd\	.
.	.	.	.	.	.	2ee\	.
.	.	.	.	4g\	.	.	.
.	.	.	.	4f\	.	2.ff\	.
.	.	.	.	4e\	.	.	.
.	.	.	.	1f	.	.	.
.	.	.	.	.	.	4ee\	.
.	.	.	.	.	.	4dd\	.
.	.	.	.	.	.	4cc\	.
=60	=60	=60	=60	=60	=60	=60	=60
!LO:N:vis=00.	!	!LO:N:vis=00.	!	!LO:N:vis=00.	!	!LO:N:vis=00.	!
0.G;	.	0.d;	.	0.g;	.	0.b;	.
=61	=61	=61	=61	=61	=61	=61	=61
!	!	!	!	!	!	!LO:TX:Z=6:t=Verona&colon; maximas	!
0.Cl	-son.	0.cl	-son.	0.gl	-son.	0.ccl	-son.
==	==	==	==	==	==	==	==
*-	*-	*-	*-	*-	*-	*-	*-
!!!RDF**kern: l=long note in original notation
!!!RDF**kern: i=editorial accidental
!!!RDF**kern: V=start of tuplet marker
!!!RDF**kern: Z=end of tuplet marker
!!!ENC: Jesse Rodin; 26 Sept 2021
!!!END: 2012/02/11/
!!!EED: Jesse Rodin
!!!EEV: 2012/05/25/
!!attribution-level@Jos: 2 (provisionally attributable [parentheses checkmark])
!!!ONB: Translated from MusicXML and edited on 2012/05/25/ by Craig Sapp
!!muse2ps: T^@{OPR}^u^@{ONM}{. }@{OTL}^C^@{COM}\n@{SCT}^i2I150v90,90,90,120c122z18l2700t130
